/* XPM */
static const char * const file_xpm[] = {
/* columns rows colors chars-per-pixel */
"16 16 4 1",
"  c None",
". c #000000",
"X c #FFFFFF",
"o c #CCCCCC",
/* pixels */
"                ",
"  ........      ",
"  .XXXXXX..     ",
"  .XXXXXX.o.    ",
"  .XXXXXX....   ",
"  .XXXXXXXXX.   ",
"  .XXXXXXXXX.   ",
"  .XX.....XX.   ",
"  .XXXXXXXXX.   ",
"  .XX.....XX.   ",
"  .XXXXXXXXX.   ",
"  .XX.....XX.   ",
"  .XXXXXXXXX.   ",
"  ...........   ",
"                ",
"                "
};